48x48/apps/firefox-beta-bin.svg

<svg xmlns="http://www.w3.org/2000/svg" width="48" height="48" version="1">
 <path style="opacity:0.2" d="M 11.383708,17.906948 C 6.7052449,21.524918 4.0000794,18.907513 4.0000794,25.233684 4.0000794,36.150319 12.954367,45 24.00004,45 c 11.045673,0 19.999961,-8.849681 19.999961,-19.766316 0,-5.082435 -1.940952,-9.716871 -5.130138,-13.218797 0.07109,-0.0027 -0.298242,-0.286613 -0.488646,-0.215756 1.333235,2.20987 2.10061,4.799539 2.10061,7.568618 0,8.103601 -4.506892,16.131621 -12.610494,16.131621 -5.204893,0.252643 -12.138384,-3.074806 -13.205552,-6.188504 -0.688507,-2.008872 -0.514713,-4.265085 1.358501,-5.51402 1.017468,-0.645877 2.500851,-1.283591 4.847679,-1.358478 2.143821,-1.409901 1.100715,-1.249529 0.997592,-1.676392 -0.665964,-0.182106 -1.848112,-0.433768 -3.480317,-1.718377 -1.445664,-1.137794 -2.117115,-1.569228 -6.330071,-1.608581 -0.795906,-1.532565 -0.597445,2.291652 -0.675457,0.47193 z"/>
 <path style="fill:#ffde3f" d="m 30.289276,2 c 0.84367,2.2459536 3.894602,5.7139707 7.91874,10.867919 3.408058,4.364899 3.79864,9.234865 5.058537,13.613523 L 33.796774,34.632048 23.1,23.651007 C 23.051967,16.350832 21.299767,8.1097516 30.289276,2 Z"/>
 <path style="opacity:0.2;fill:#f4f4f7" d="M 30.289062 2 C 23.743731 6.4485575 22.897697 12.026343 22.9375 17.548828 C 23.017579 12.35744 24.138867 7.1800024 30.289062 3 C 31.132732 5.2459536 34.184846 8.7132392 38.208984 13.867188 C 41.408265 17.964693 41.954357 22.502597 43.050781 26.666016 L 43.265625 26.480469 C 42.005728 22.101811 41.617042 17.232087 38.208984 12.867188 C 34.184846 7.7132392 31.132732 4.2459536 30.289062 2 z"/>
 <path style="fill:#ff750e" d="m 10.956404,15.714003 c 1.389334,-1.378591 3.657964,-4.58869 6.364796,-5.478559 -0.727223,3.876168 0.215559,5.108162 0.68482,7.089899 L 13.6554,16.197404 Z"/>
 <circle style="fill:#8357cd" cx="24" cy="24" r="10"/>
 <path style="fill:#ffba36" d="m 27.738872,17.234756 c -0.14224,0.0014 -0.284421,0.0064 -0.426401,0.01515 2.896203,1.359555 4.747167,4.268975 4.751377,7.468407 -0.0022,4.395846 -3.445862,8.12077 -7.835848,8.347687 1.097729,0.519415 2.296463,0.690057 3.510872,0.693439 4.563161,4.1e-5 8.262372,-3.699089 8.262432,-8.26225 4.1e-5,-4.563232 -3.6992,-8.262474 -8.262432,-8.262433 z"/>
 <path id="ellipse841" style="fill:#f74e66" d="M 11.383708,16.906948 C 6.7052449,20.524918 4.0000794,17.907513 4.0000794,24.233684 4.0000794,35.150319 12.954367,44 24.00004,44 c 11.045673,0 19.999961,-8.849681 19.999961,-19.766316 0,-5.082435 -1.940952,-9.716871 -5.130138,-13.218797 0.07109,-0.0027 -0.298242,-0.286613 -0.488646,-0.215756 1.333235,2.20987 2.10061,4.799539 2.10061,7.568618 0,8.103601 -4.506892,16.131621 -12.610494,16.131621 -5.204893,0.252643 -12.138384,-3.074806 -13.205552,-6.188504 -0.688507,-2.008872 -0.514713,-4.265085 1.358501,-5.51402 1.017468,-0.645877 2.500851,-1.283591 4.847679,-1.358478 2.143821,-1.409901 1.100715,-1.249529 0.997592,-1.676392 -0.665964,-0.182106 -1.848112,-0.433768 -3.480317,-1.718377 -1.445664,-1.137794 -2.117115,-1.569228 -6.330071,-1.608581 -0.795906,-1.532565 -0.597445,2.291652 -0.675457,0.47193 z"/>
 <path style="opacity:0.1" d="M 11.685547,9.6582031 C 7.207349,13.121303 4.2675076,18.431553 4.0234375,24.427734 4.2795251,33.617002 12.667958,41 23,41 c 10.49341,0 19,-7.611159 19,-17 0,-2.530342 -0.622373,-4.929976 -1.730469,-7.087891 0.13486,0.799262 0.212891,1.617437 0.212891,2.455079 0,8.103601 -6.570226,14.673828 -14.673828,14.673828 -5.204893,0.252643 -9.120332,-2.62263 -10.1875,-5.736328 -0.688507,-2.008873 -0.463058,-2.856534 1.410156,-4.105469 1.017468,-0.645877 2.450047,-1.083316 4.796875,-1.158203 2.143821,-1.409901 2.308201,-1.952044 2.205078,-2.378907 -0.665964,-0.182106 -2.50256,-0.887266 -4.134765,-2.171875 C 18.452773,17.35244 16.625065,15.059353 12.412109,15.02 11.616203,13.487435 11.763559,11.477925 11.685547,9.6582031 Z"/>
 <path style="fill:#ff7f1f" d="M 11.685547,8.6582031 C 7.207349,12.121303 4.2675076,17.431553 4.0234375,23.427734 4.2795251,32.617002 12.667958,40 23,40 c 10.49341,0 19,-7.611159 19,-17 0,-2.530342 -0.622373,-4.929976 -1.730469,-7.087891 0.13486,0.799262 0.212891,1.617437 0.212891,2.455079 0,8.103601 -6.570226,14.673828 -14.673828,14.673828 -5.204893,0.252643 -9.120332,-2.62263 -10.1875,-5.736328 -0.688507,-2.008873 -0.463058,-2.856534 1.410156,-4.105469 1.017468,-0.645877 2.450047,-1.083316 4.796875,-1.158203 2.143821,-1.409901 2.308201,-1.952044 2.205078,-2.378907 -0.665964,-0.182106 -2.50256,-0.887266 -4.134765,-2.171875 C 18.452773,16.35244 16.625065,14.059353 12.412109,14.02 11.616203,12.487435 11.763559,10.477925 11.685547,8.6582031 Z"/>
 <path style="fill:#ffba36" d="m 12.9357,19.005753 c -1.361036,-0.02953 -2.79292,0.437222 -3.7030813,1.058337 -0.1630259,0.163026 1.5846873,3.114177 4.6265243,3.146167 -0.281634,4.906808 3.64122,7.958153 6.107245,8.668162 l 7.48e-4,-0.0022 c -6.54e-4,-3.36e-4 -0.0013,-7.57e-4 -0.002,-0.0011 -0.198719,-0.09852 -0.392011,-0.20212 -0.579913,-0.310492 -0.01757,-0.01013 -0.03492,-0.02046 -0.05239,-0.03067 -0.105035,-0.06141 -0.208263,-0.124265 -0.309761,-0.188559 -0.01987,-0.01258 -0.03977,-0.0251 -0.05951,-0.03778 -0.101593,-0.06536 -0.20127,-0.132129 -0.299174,-0.200241 -0.01536,-0.01068 -0.03091,-0.0212 -0.04618,-0.03194 -0.0562,-0.03957 -0.111895,-0.07948 -0.166837,-0.119925 -0.107747,-0.07932 -0.212772,-0.160441 -0.315602,-0.242953 -0.0244,-0.01957 -0.04853,-0.03922 -0.07265,-0.05896 -0.07283,-0.05964 -0.144418,-0.119914 -0.214661,-0.181075 -0.0342,-0.02975 -0.0681,-0.05971 -0.101672,-0.08981 -0.04875,-0.04374 -0.09695,-0.08771 -0.144384,-0.132155 -0.04584,-0.04291 -0.09122,-0.08605 -0.135806,-0.129599 -0.03679,-0.03597 -0.07322,-0.07205 -0.109156,-0.108426 -0.05223,-0.05283 -0.103661,-0.106046 -0.154059,-0.159718 -9.72e-4,-0.001 -0.0019,-0.0021 -0.0029,-0.0031 -0.03116,-0.03325 -0.06155,-0.06684 -0.092,-0.100394 -0.04291,-0.04724 -0.08519,-0.09473 -0.126678,-0.142559 -0.03267,-0.0377 -0.06496,-0.07549 -0.09674,-0.113537 -0.0423,-0.0506 -0.0836,-0.101598 -0.124306,-0.152781 -0.02296,-0.02889 -0.04619,-0.05764 -0.06863,-0.0867 -0.05105,-0.06606 -0.100384,-0.132756 -0.148766,-0.199693 -0.01927,-0.02668 -0.03847,-0.05332 -0.05732,-0.08013 -0.05029,-0.0715 -0.09919,-0.143377 -0.146393,-0.215756 -0.01289,-0.01978 -0.02531,-0.03967 -0.03797,-0.05951 -0.04692,-0.07349 -0.09265,-0.147139 -0.136353,-0.221415 -0.0093,-0.01573 -0.01828,-0.03152 -0.02738,-0.04728 -0.04404,-0.0762 -0.08607,-0.152901 -0.12668,-0.229812 -0.0075,-0.01426 -0.01541,-0.02843 -0.02282,-0.04271 -0.04242,-0.08177 -0.08253,-0.163979 -0.121021,-0.246422 -0.0081,-0.01727 -0.01603,-0.03454 -0.02391,-0.05184 -0.03768,-0.08262 -0.07367,-0.165453 -0.10733,-0.248613 -0.0053,-0.01318 -0.01028,-0.02642 -0.01552,-0.03961 -0.03511,-0.08849 -0.06863,-0.177179 -0.09912,-0.266135 -0.688507,-2.008872 -0.464411,-2.856635 1.408803,-4.10557 1.017468,-0.645877 2.450548,-1.082383 4.797376,-1.15727 2.143821,-1.409901 2.307959,-1.953755 2.204836,-2.380618 -3.61569,2.86611 -6.993136,0.422936 -10.173205,-0.551756 -0.299252,-0.06388 -0.60954,-0.09705 -0.923625,-0.103862 z"/>
 <path style="opacity:0.2;fill:#f4f4f7" d="M 11.685547 8.6582031 C 7.2073489 12.121303 4.2675076 17.431553 4.0234375 23.427734 C 4.0276636 23.579379 4.0519193 23.726317 4.0605469 23.876953 C 4.4572887 18.107952 7.3455683 13.014415 11.685547 9.6582031 C 11.763559 11.477925 11.616203 13.486966 12.412109 15.019531 C 16.625065 15.058884 18.452773 17.35244 19.898438 18.490234 C 21.337573 19.62289 22.888716 20.280416 23.703125 20.550781 C 24.046016 20.152973 24.087444 19.886632 24.033203 19.662109 C 23.367239 19.480003 21.530642 18.774843 19.898438 17.490234 C 18.452773 16.35244 16.625065 14.058884 12.412109 14.019531 C 11.616203 12.486966 11.763559 10.477925 11.685547 8.6582031 z M 40.269531 15.912109 C 40.343747 16.351957 40.39538 16.798604 40.431641 17.25 C 41.34452 19.133706 41.88958 21.191533 41.980469 23.355469 C 41.983234 23.236072 42 23.11999 42 23 C 42 20.469658 41.377627 18.070024 40.269531 15.912109 z M 40.458984 18.839844 C 40.207223 26.722744 33.752613 33.041016 25.808594 33.041016 C 20.603701 33.293659 16.688262 30.418385 15.621094 27.304688 C 15.475643 26.880303 15.381174 26.517109 15.324219 26.181641 C 15.204245 26.753204 15.314847 27.411144 15.621094 28.304688 C 16.688262 31.418385 20.603701 34.293659 25.808594 34.041016 C 33.912196 34.041016 40.482422 27.470789 40.482422 19.367188 C 40.482422 19.189395 40.465812 19.015887 40.458984 18.839844 z"/>
</svg>

<svg xmlns="http://www.w3.org/2000/svg" width="48" height="48" version="1"><path style="opacity:.2" d="M11.384 17.907C6.705 21.525 4 18.907 4 25.234 4 36.15 12.954 45 24 45s20-8.85 20-19.766c0-5.083-1.941-9.717-5.13-13.22.071-.002-.298-.286-.489-.215 1.333 2.21 2.1 4.8 2.1 7.569 0 8.103-4.506 16.131-12.61 16.131-5.205.253-12.138-3.074-13.205-6.188-.689-2.009-.515-4.265 1.358-5.514 1.018-.646 2.501-1.284 4.848-1.359 2.144-1.41 1.1-1.25.998-1.676-.666-.182-1.849-.434-3.48-1.718-1.446-1.138-2.118-1.57-6.33-1.609-.797-1.533-.598 2.292-.676.472z"/><path style="fill:#ffde3f" d="M30.29 2c.843 2.246 3.894 5.714 7.918 10.868 3.408 4.365 3.799 9.235 5.059 13.613l-9.47 8.151L23.1 23.651C23.052 16.351 21.3 8.11 30.29 2z"/><path style="opacity:.2;fill:#f4f4f7" d="M30.29 2c-6.546 4.449-7.392 10.026-7.352 15.549.08-5.192 1.2-10.369 7.351-14.549.844 2.246 3.896 5.713 7.92 10.867 3.2 4.098 3.745 8.636 4.842 12.799l.215-.186c-1.26-4.378-1.649-9.248-5.057-13.613C34.185 7.713 31.133 4.246 30.289 2z"/><path style="fill:#ff750e" d="M10.956 15.714c1.39-1.379 3.658-4.589 6.365-5.479-.727 3.877.216 5.109.685 7.09l-4.35-1.128z"/><circle style="fill:#8357cd" cx="24" cy="24" r="10"/><path style="fill:#ffba36" d="M27.739 17.235a8.252 8.252 0 0 0-.427.015 8.262 8.262 0 0 1 4.752 7.468c-.002 4.396-3.446 8.121-7.836 8.348 1.098.52 2.296.69 3.51.693a8.262 8.262 0 1 0 0-16.524z"/><path style="fill:#f74e66" d="M11.384 16.907C6.705 20.525 4 17.907 4 24.234 4 35.15 12.954 44 24 44s20-8.85 20-19.766c0-5.083-1.941-9.717-5.13-13.22.071-.002-.298-.286-.489-.215 1.333 2.21 2.1 4.8 2.1 7.569 0 8.103-4.506 16.131-12.61 16.131-5.205.253-12.138-3.074-13.205-6.188-.689-2.009-.515-4.265 1.358-5.514 1.018-.646 2.501-1.284 4.848-1.359 2.144-1.41 1.1-1.25.998-1.676-.666-.182-1.849-.434-3.48-1.718-1.446-1.138-2.118-1.57-6.33-1.609-.797-1.533-.598 2.292-.676.472z"/><path style="opacity:.1" d="M11.686 9.658c-4.479 3.463-7.418 8.774-7.663 14.77C4.28 33.617 12.668 41 23 41c10.493 0 19-7.611 19-17 0-2.53-.622-4.93-1.73-7.088.134.8.212 1.618.212 2.455 0 8.104-6.57 14.674-14.673 14.674-5.205.253-9.12-2.623-10.188-5.736-.688-2.01-.463-2.857 1.41-4.106 1.018-.646 2.45-1.083 4.797-1.158 2.144-1.41 2.308-1.952 2.205-2.379-.666-.182-2.502-.887-4.135-2.172-1.445-1.138-3.273-3.43-7.486-3.47-.796-1.533-.648-3.542-.726-5.362z"/><path style="fill:#ff7f1f" d="M11.686 8.658c-4.479 3.463-7.418 8.774-7.663 14.77C4.28 32.617 12.668 40 23 40c10.493 0 19-7.611 19-17 0-2.53-.622-4.93-1.73-7.088.134.8.212 1.618.212 2.455 0 8.104-6.57 14.674-14.673 14.674-5.205.253-9.12-2.623-10.188-5.736-.688-2.01-.463-2.857 1.41-4.106 1.018-.646 2.45-1.083 4.797-1.158 2.144-1.41 2.308-1.952 2.205-2.379-.666-.182-2.502-.887-4.135-2.172-1.445-1.138-3.273-3.43-7.486-3.47-.796-1.533-.648-3.542-.726-5.362z"/><path style="fill:#ffba36" d="M12.936 19.006c-1.361-.03-2.793.437-3.703 1.058-.163.163 1.584 3.114 4.626 3.146-.281 4.907 3.641 7.958 6.107 8.668l.001-.002h-.002a10.46 10.46 0 0 1-.58-.311l-.052-.031a10.189 10.189 0 0 1-.31-.189l-.06-.037a9.957 9.957 0 0 1-.299-.2l-.046-.033a9.74 9.74 0 0 1-.871-.692 9.066 9.066 0 0 1-.544-.53l-.003-.003-.092-.1a8.337 8.337 0 0 1-.347-.41l-.069-.086a7.76 7.76 0 0 1-.352-.496l-.038-.06a7.153 7.153 0 0 1-.137-.22l-.027-.048a6.858 6.858 0 0 1-.127-.23l-.023-.043a6.572 6.572 0 0 1-.252-.546l-.015-.04a5.986 5.986 0 0 1-.1-.266c-.688-2.01-.464-2.857 1.41-4.106 1.017-.646 2.45-1.082 4.797-1.157 2.144-1.41 2.308-1.954 2.205-2.38-3.616 2.865-6.994.422-10.174-.552-.299-.064-.61-.097-.923-.104z"/><path style="opacity:.2;fill:#f4f4f7" d="M11.686 8.658c-4.479 3.463-7.418 8.774-7.663 14.77.005.151.029.298.038.449.396-5.769 3.285-10.863 7.625-14.219.078 1.82-.07 3.829.726 5.362 4.213.039 6.04 2.332 7.486 3.47a13.261 13.261 0 0 0 3.805 2.06c.343-.397.384-.663.33-.888-.666-.182-2.502-.887-4.135-2.172-1.445-1.138-3.273-3.431-7.486-3.47-.796-1.533-.648-3.542-.726-5.362zm28.584 7.254c.074.44.125.887.162 1.338a15.439 15.439 0 0 1 1.548 6.105c.003-.119.02-.235.02-.355 0-2.53-.622-4.93-1.73-7.088zm.189 2.928c-.252 7.883-6.706 14.201-14.65 14.201-5.205.253-9.12-2.623-10.188-5.736a7.135 7.135 0 0 1-.297-1.123c-.12.571-.01 1.23.297 2.123 1.067 3.113 4.983 5.989 10.188 5.736 8.103 0 14.673-6.57 14.673-14.674 0-.178-.016-.351-.023-.527z"/></svg>
